public/images/tools-boisson.svg

<svg width="219" height="180" viewBox="0 0 219 180" fill="none" xmlns="http://www.w3.org/2000/svg">
<path d="M106.988 12.6628H111.679C169.08 12.6628 215.687 59.2694 215.687 116.67V141.261C215.687 155.872 203.829 167.73 189.218 167.73H29.4495C14.8383 167.73 2.98047 155.872 2.98047 141.261V116.67C2.98047 59.2694 49.587 12.6628 106.988 12.6628Z" fill="#E0F4F3"/>
<path d="M99.732 112.327C106.749 112.327 112.445 106.641 112.445 99.6139L111.331 90.4894H88.1425L87.0293 99.6139C87.0293 106.631 92.7147 112.327 99.742 112.327H99.732Z" fill="#C4EAE7"/>
<path d="M99.732 113.321C92.178 113.321 86.0254 107.178 86.0254 99.6139C86.0254 99.5742 86.0254 99.5344 86.0254 99.4947L87.1386 90.3702C87.1983 89.8732 87.6257 89.4955 88.1226 89.4955H111.312C111.819 89.4955 112.236 89.8732 112.296 90.3702L113.409 99.4947C113.409 99.4947 113.409 99.5742 113.409 99.6139C113.409 107.168 107.266 113.321 99.7022 113.321H99.732ZM88.0133 99.6736C88.0431 106.104 93.2912 111.333 99.732 111.333C106.173 111.333 111.411 106.114 111.451 99.6736L110.457 91.4834H89.0271L88.0332 99.6736H88.0133Z" fill="#13706D"/>
<path d="M99.732 112.327C106.749 112.327 112.445 106.641 112.445 99.6139H87.0293C87.0293 106.631 92.7147 112.327 99.742 112.327H99.732Z" fill="#AFE0DD"/>
<path d="M99.732 113.321C92.178 113.321 86.0254 107.178 86.0254 99.6139C86.0254 99.0673 86.4727 98.62 87.0193 98.62H112.435C112.981 98.62 113.429 99.0673 113.429 99.6139C113.429 107.168 107.286 113.321 99.7221 113.321H99.732ZM88.063 100.608C88.5699 106.601 93.6093 111.333 99.732 111.333C105.855 111.333 110.894 106.611 111.401 100.608H88.0531H88.063Z" fill="#13706D"/>
<path d="M99.7321 128.757C105.805 128.757 110.725 130.645 110.725 132.971H88.729C88.729 130.645 93.6491 128.757 99.7221 128.757H99.7321Z" fill="#AFE0DD"/>
<path d="M110.725 133.965H88.7288C88.1821 133.965 87.7349 133.518 87.7349 132.971C87.7349 129.592 93.9173 127.763 99.722 127.763C105.527 127.763 111.709 129.592 111.709 132.971C111.709 133.518 111.262 133.965 110.715 133.965H110.725ZM90.3589 131.977H109.115C107.783 130.864 104.403 129.751 99.7418 129.751C95.0802 129.751 91.7007 130.864 90.3688 131.977H90.3589Z" fill="#13706D"/>
<path d="M99.7317 129.751C99.1851 129.751 98.7378 129.303 98.7378 128.757V112.327C98.7378 111.78 99.1851 111.333 99.7317 111.333C100.278 111.333 100.726 111.78 100.726 112.327V128.757C100.726 129.303 100.278 129.751 99.7317 129.751Z" fill="#13706D"/>
<path d="M55.7494 130.178H59.2183C61.077 130.178 62.8164 129.194 63.701 127.564C67.6371 120.387 67.4383 110.786 67.4383 110.786H41.2575C41.2575 110.786 41.0587 120.387 44.9948 127.564C45.8894 129.194 47.6288 130.178 49.4775 130.178H55.7395H55.7494Z" fill="white"/>
<path d="M59.2182 131.172H49.4874C47.2411 131.172 45.1836 129.969 44.13 128.041C40.1144 120.716 40.2635 111.174 40.2734 110.766C40.2834 110.229 40.7307 109.792 41.2674 109.792H67.4482C67.9849 109.792 68.4322 110.229 68.4421 110.766C68.4421 111.174 68.6011 120.716 64.5756 128.041C63.5121 129.969 61.4645 131.172 59.2182 131.172ZM42.2613 111.78C42.3409 114.354 42.8279 121.531 45.8694 127.077C46.5751 128.369 47.9666 129.174 49.4874 129.174H59.2182C60.739 129.174 62.1206 128.369 62.8362 127.077C65.8777 121.531 66.3647 114.354 66.4443 111.78H42.2713H42.2613Z" fill="#13706D"/>
<path d="M68.4023 124.612H65.2713C64.7246 124.612 64.2773 124.165 64.2773 123.618C64.2773 123.071 64.7246 122.624 65.2713 122.624H68.4023C70.0721 122.624 71.5034 121.372 71.7121 119.712C71.8314 118.757 71.5431 117.803 70.907 117.078C70.2709 116.362 69.3565 115.945 68.4023 115.945H67.2294C66.6827 115.945 66.2354 115.497 66.2354 114.951C66.2354 114.404 66.6827 113.957 67.2294 113.957H68.4023C69.9329 113.957 71.3841 114.613 72.398 115.766C73.4118 116.919 73.8789 118.449 73.6802 119.96C73.3422 122.614 71.0661 124.612 68.3923 124.612H68.4023Z" fill="#13706D"/>
<path d="M68.9988 130.178H39.2199C39.2199 130.178 37.8184 134.273 54.3479 134.273C70.8773 134.273 68.9988 130.178 68.9988 130.178Z" fill="white"/>
<path d="M54.3478 135.257C45.5712 135.257 40.3032 134.114 38.693 131.868C37.9774 130.864 38.2159 130.009 38.2756 129.85C38.4147 129.452 38.7924 129.184 39.2198 129.184H68.9987C69.3864 129.184 69.7442 129.413 69.9032 129.761C70.1119 130.228 70.1815 131.053 69.6448 131.878C68.2035 134.124 63.0549 135.257 54.3379 135.257H54.3478ZM40.7903 131.172C41.9035 131.977 45.1239 133.279 54.3478 133.279C63.5717 133.279 66.6927 131.967 67.637 131.172H40.7903Z" fill="#13706D"/>
<path d="M138.039 132.971V76.4051C138.039 66.8035 145.822 59.0308 155.413 59.0308C165.015 59.0308 172.788 66.8134 172.788 76.4051V83.8995H164.816V76.8822C164.816 71.9522 160.82 67.9565 155.89 67.9565C150.96 67.9565 146.965 71.9522 146.965 76.8822V132.971H138.039Z" fill="white"/>
<path d="M146.965 133.965H138.039C137.492 133.965 137.045 133.518 137.045 132.971V76.4051C137.045 66.2767 145.285 58.0369 155.413 58.0369C165.542 58.0369 173.781 66.2767 173.781 76.4051V83.8996C173.781 84.4462 173.334 84.8935 172.788 84.8935H164.816C164.269 84.8935 163.822 84.4462 163.822 83.8996V76.8822C163.822 72.5088 160.264 68.9505 155.89 68.9505C151.517 68.9505 147.959 72.5088 147.959 76.8822V132.971C147.959 133.518 147.511 133.965 146.965 133.965ZM139.033 131.977H145.971V76.8822C145.971 71.4155 150.424 66.9626 155.89 66.9626C161.357 66.9626 165.81 71.4155 165.81 76.8822V82.9056H171.794V76.4051C171.794 67.3701 164.448 60.0248 155.413 60.0248C146.378 60.0248 139.033 67.3701 139.033 76.4051V131.977Z" fill="#13706D"/>
<path d="M178.523 110.428H159.061V132.961H178.523V110.428Z" fill="#C4EAE7"/>
<path d="M178.533 133.965H159.071C158.524 133.965 158.077 133.518 158.077 132.971V110.438C158.077 109.891 158.524 109.444 159.071 109.444H178.533C179.079 109.444 179.527 109.891 179.527 110.438V132.971C179.527 133.518 179.079 133.965 178.533 133.965ZM160.055 131.977H177.529V111.432H160.055V131.977Z" fill="#13706D"/>
<path d="M178.523 128.757H159.061V132.971H178.523V128.757Z" fill="white"/>
<path d="M178.533 133.965H159.071C158.524 133.965 158.077 133.518 158.077 132.971V128.757C158.077 128.21 158.524 127.763 159.071 127.763H178.533C179.079 127.763 179.527 128.21 179.527 128.757V132.971C179.527 133.518 179.079 133.965 178.533 133.965ZM160.055 131.977H177.529V129.751H160.055V131.977Z" fill="#13706D"/>
<path d="M142.492 132.971V124.841C142.492 123.866 141.985 122.952 141.16 122.435L127.146 113.728C125.973 113.003 124.422 113.509 123.915 114.792C123.528 115.766 123.885 116.879 124.76 117.455L130.237 121.044C130.863 121.451 131.241 122.147 131.241 122.892V132.961H142.502L142.492 132.971Z" fill="white"/>
<path d="M142.492 133.965H131.23C130.684 133.965 130.237 133.518 130.237 132.971V122.902C130.237 122.485 130.028 122.107 129.68 121.879L124.213 118.29C122.951 117.465 122.434 115.835 122.991 114.424C123.338 113.539 124.064 112.853 124.969 112.555C125.873 112.257 126.857 112.376 127.672 112.873L141.687 121.58C142.82 122.286 143.496 123.499 143.496 124.831V132.961C143.496 133.508 143.049 133.955 142.502 133.955L142.492 133.965ZM132.224 131.977H141.498V124.841C141.498 124.204 141.17 123.618 140.633 123.28L126.619 114.573C126.31 114.384 125.933 114.334 125.585 114.454C125.237 114.573 124.969 114.831 124.829 115.169C124.621 115.706 124.819 116.322 125.297 116.64L130.773 120.229C131.678 120.825 132.224 121.829 132.224 122.912V131.987V131.977Z" fill="#13706D"/>
<path d="M131.23 124.831C131.23 124.831 136.906 129.631 142.492 125.308L131.23 124.831Z" fill="white"/>
<path d="M137.413 128.101C134.491 128.101 131.926 126.729 130.594 125.596C130.177 125.238 130.127 124.612 130.475 124.194C130.833 123.777 131.459 123.727 131.876 124.075C132.095 124.254 137.025 128.29 141.886 124.523C142.323 124.185 142.949 124.264 143.277 124.701C143.615 125.139 143.536 125.755 143.098 126.093C141.2 127.564 139.242 128.101 137.413 128.101Z" fill="#13706D"/>
<path d="M167.708 88.4419L164.07 97.1688C163.275 99.0772 163.703 101.264 165.164 102.735C167.142 104.733 170.372 104.753 172.37 102.775L172.39 102.755C173.891 101.284 174.328 99.0374 173.503 97.1091L169.796 88.4319C169.398 87.5076 168.086 87.5076 167.698 88.4319L167.708 88.4419Z" fill="#C4EAE7"/>
<path d="M168.782 105.23C167.211 105.23 165.641 104.633 164.458 103.431C162.719 101.671 162.212 99.0672 163.156 96.7811L166.794 88.0542C167.122 87.259 167.897 86.7422 168.752 86.7422C169.607 86.7422 170.372 87.2491 170.71 88.0343L174.418 96.7116C175.412 99.0374 174.885 101.681 173.086 103.461C171.893 104.633 170.332 105.22 168.782 105.22V105.23ZM168.623 88.8295L164.985 97.5564C164.349 99.097 164.687 100.856 165.86 102.039C167.45 103.649 170.054 103.659 171.664 102.079C172.897 100.866 173.255 99.0772 172.579 97.5067L168.871 88.8295C168.871 88.8295 168.832 88.74 168.742 88.74C168.643 88.74 168.623 88.7997 168.613 88.8295H168.623Z" fill="#13706D"/>
<path d="M50.3819 105.409C50.0141 105.409 49.6662 105.21 49.4873 104.862L48.1355 102.148C46.8434 99.5642 47.1018 96.5128 48.8015 94.1869C50.1533 92.3381 50.2626 89.8831 49.0897 87.915L47.3603 85.0226C47.082 84.5555 47.231 83.9392 47.7081 83.6609C48.1753 83.3826 48.7916 83.5317 49.0699 84.0088L50.7993 86.9012C52.3797 89.5551 52.2306 92.8749 50.4018 95.3598C49.1394 97.0892 48.9506 99.3455 49.9048 101.254L51.2566 103.967C51.5051 104.454 51.3063 105.051 50.8093 105.299C50.6701 105.369 50.5111 105.409 50.362 105.409H50.3819Z" fill="#13706D"/>
<path d="M60.1525 106.114C59.7847 106.114 59.4369 105.916 59.2579 105.568L58.3833 103.818C57.4887 102.029 57.6676 99.9221 58.8504 98.3118C59.6356 97.2384 59.7052 95.7971 59.0194 94.6541L57.9062 92.7855C57.6279 92.3183 57.7769 91.702 58.254 91.4237C58.7212 91.1454 59.3375 91.2945 59.6158 91.7716L60.729 93.6403C61.8223 95.4691 61.713 97.7751 60.4606 99.4947C59.7251 100.499 59.6158 101.821 60.1724 102.944L61.0471 104.693C61.2955 105.18 61.0968 105.776 60.5998 106.025C60.4606 106.095 60.3016 106.134 60.1525 106.134V106.114Z" fill="#13706D"/>
<path d="M168.444 101.045C169.284 101.045 169.965 100.364 169.965 99.5245C169.965 98.6846 169.284 98.0038 168.444 98.0038C167.604 98.0038 166.923 98.6846 166.923 99.5245C166.923 100.364 167.604 101.045 168.444 101.045Z" fill="white"/>
<path d="M172.798 81.4445H168.802C168.255 81.4445 167.808 80.9972 167.808 80.4505C167.808 79.9038 168.255 79.4565 168.802 79.4565H172.798C173.344 79.4565 173.792 79.9038 173.792 80.4505C173.792 80.9972 173.344 81.4445 172.798 81.4445Z" fill="#13706D"/>
<path d="M67.309 144.72H41.3768C40.8301 144.72 40.3828 144.272 40.3828 143.726C40.3828 143.179 40.8301 142.732 41.3768 142.732H67.309C67.8557 142.732 68.303 143.179 68.303 143.726C68.303 144.272 67.8557 144.72 67.309 144.72Z" fill="#13706D"/>
<path d="M52.4398 149.59H41.387C40.8403 149.59 40.3931 149.143 40.3931 148.596C40.3931 148.049 40.8403 147.602 41.387 147.602H52.4398C52.9865 147.602 53.4337 148.049 53.4337 148.596C53.4337 149.143 52.9865 149.59 52.4398 149.59Z" fill="#13706D"/>
<path d="M112.693 144.72H86.761C86.2144 144.72 85.7671 144.272 85.7671 143.726C85.7671 143.179 86.2144 142.732 86.761 142.732H112.693C113.24 142.732 113.687 143.179 113.687 143.726C113.687 144.272 113.24 144.72 112.693 144.72Z" fill="#13706D"/>
<path d="M97.8236 149.59H86.7708C86.2241 149.59 85.7769 149.143 85.7769 148.596C85.7769 148.049 86.2241 147.602 86.7708 147.602H97.8236C98.3703 147.602 98.8175 148.049 98.8175 148.596C98.8175 149.143 98.3703 149.59 97.8236 149.59Z" fill="#13706D"/>
<path d="M170.8 144.72H136.866C136.319 144.72 135.872 144.272 135.872 143.726C135.872 143.179 136.319 142.732 136.866 142.732H170.8C171.346 142.732 171.794 143.179 171.794 143.726C171.794 144.272 171.346 144.72 170.8 144.72Z" fill="#13706D"/>
<path d="M151.328 149.59H136.856C136.31 149.59 135.862 149.143 135.862 148.596C135.862 148.049 136.31 147.602 136.856 147.602H151.328C151.875 147.602 152.322 148.049 152.322 148.596C152.322 149.143 151.875 149.59 151.328 149.59Z" fill="#13706D"/>
<path d="M82.4771 60.79C87.8568 60.79 92.2178 56.4289 92.2178 51.0492C92.2178 45.6696 87.8568 41.3085 82.4771 41.3085C77.0974 41.3085 72.7363 45.6696 72.7363 51.0492C72.7363 56.4289 77.0974 60.79 82.4771 60.79Z" fill="white"/>
<path d="M82.4769 61.784C76.5629 61.784 71.7422 56.9733 71.7422 51.0493C71.7422 45.1253 76.5529 40.3146 82.4769 40.3146C88.4009 40.3146 93.2116 45.1253 93.2116 51.0493C93.2116 56.9733 88.4009 61.784 82.4769 61.784ZM82.4769 42.3025C77.6562 42.3025 73.7301 46.2286 73.7301 51.0493C73.7301 55.87 77.6562 59.7961 82.4769 59.7961C87.2976 59.7961 91.2237 55.87 91.2237 51.0493C91.2237 46.2286 87.2976 42.3025 82.4769 42.3025Z" fill="#13706D"/>
<path d="M114.91 49.449C113.568 49.2304 112.276 49.2602 111.053 49.4888C110.03 49.6876 108.996 49.4192 108.191 48.7632C105.994 46.9542 103.151 45.9106 100.08 46.0199C95.1501 46.2088 91.0251 49.3298 89.3155 53.6435C88.7788 55.0053 87.5264 55.87 86.0554 55.9694C85.1608 56.029 84.2165 56.2875 83.2325 56.8341C80.8073 58.2058 79.1474 60.7602 79.3064 63.5433C79.5251 67.4396 82.825 70.4513 86.7412 70.3022C88.252 70.2426 89.6336 69.7158 90.7568 68.8709C91.8799 68.0261 93.4206 67.9267 94.673 68.6224C96.5316 69.6561 98.6885 70.2128 100.965 70.1233C102.386 70.0736 103.728 69.7754 104.97 69.2685C105.895 68.9007 106.918 68.9902 107.793 69.4772C109.463 70.4215 111.411 70.9284 113.469 70.8489C120.049 70.6004 125.038 64.5075 123.607 57.7486C122.702 53.4944 119.184 50.1548 114.89 49.4391L114.91 49.449Z" fill="#AFE0DD"/>
<path d="M113.091 71.8628C111.073 71.8628 109.095 71.3459 107.336 70.3619C106.72 70.014 105.994 69.9544 105.368 70.2128C103.976 70.7694 102.515 71.0775 101.024 71.1372C98.6487 71.2366 96.293 70.67 94.2157 69.5071C93.2913 68.9902 92.1979 69.0499 91.3729 69.6761C90.041 70.68 88.4607 71.2465 86.7908 71.3061C82.3478 71.4652 78.5808 68.0162 78.3223 63.6129C78.1534 60.5913 79.8928 57.5995 82.7554 55.9794C83.799 55.3929 84.8924 55.055 86.0056 54.9854C87.1089 54.9158 88.0034 54.2797 88.401 53.2857C90.3094 48.4651 94.8816 45.2347 100.05 45.0359C103.221 44.9067 106.362 45.9702 108.827 47.9979C109.403 48.475 110.129 48.6639 110.864 48.5148C112.246 48.2464 113.667 48.2365 115.069 48.4651C119.78 49.2503 123.607 52.8981 124.591 57.5498C125.326 61.0088 124.511 64.5671 122.374 67.3204C120.227 70.0736 117.007 71.7236 113.518 71.8528C113.369 71.8528 113.23 71.8528 113.081 71.8528L113.091 71.8628ZM106.183 68.0659C106.908 68.0659 107.644 68.2547 108.31 68.6324C109.87 69.517 111.65 69.9345 113.459 69.8748C116.351 69.7655 119.035 68.3939 120.814 66.1078C122.593 63.8217 123.269 60.8597 122.653 57.9772C121.838 54.1207 118.657 51.0891 114.751 50.443C113.568 50.2442 112.385 50.2641 111.242 50.4828C109.94 50.7313 108.588 50.3933 107.564 49.5485C105.477 47.8289 102.843 46.9443 100.13 47.0338C95.7463 47.2027 91.8699 49.9461 90.2597 54.0312C89.5838 55.7309 88.0134 56.864 86.1447 56.9833C85.3297 57.033 84.5445 57.2715 83.7493 57.7287C81.5427 58.9712 80.2009 61.2473 80.3301 63.5235C80.519 66.8632 83.3716 69.4773 86.7312 69.3481C87.9935 69.2984 89.1862 68.8809 90.1901 68.1156C91.6512 67.0123 93.5696 66.893 95.1897 67.7975C96.949 68.7716 98.9469 69.2487 100.965 69.1791C102.227 69.1294 103.469 68.871 104.642 68.3939C105.139 68.1951 105.666 68.0957 106.193 68.0957L106.183 68.0659Z" fill="#13706D"/>
</svg>

<svg xmlns="http://www.w3.org/2000/svg" width="219" height="180" fill="none"><path fill="#E0F4F3" d="M106.988 12.663h4.691c57.401 0 104.008 46.606 104.008 104.007v24.591c0 14.611-11.858 26.469-26.469 26.469H29.45c-14.612 0-26.47-11.858-26.47-26.469V116.67c0-57.4 46.607-104.007 104.008-104.007"/><path fill="#C4EAE7" d="M99.732 112.327c7.017 0 12.713-5.686 12.713-12.713l-1.114-9.125H88.142l-1.113 9.125c0 7.017 5.686 12.713 12.713 12.713z"/><path fill="#13706D" d="M99.732 113.321c-7.554 0-13.707-6.143-13.707-13.707v-.12l1.114-9.124a1 1 0 0 1 .984-.874h23.189a.99.99 0 0 1 .984.874l1.113 9.125v.119c0 7.554-6.143 13.707-13.707 13.707zM88.013 99.674c.03 6.43 5.278 11.659 11.719 11.659s11.679-5.219 11.719-11.66l-.994-8.19h-21.43l-.994 8.19z"/><path fill="#AFE0DD" d="M99.732 112.327c7.017 0 12.713-5.686 12.713-12.713H87.029c0 7.017 5.686 12.713 12.713 12.713z"/><path fill="#13706D" d="M99.732 113.321c-7.554 0-13.707-6.143-13.707-13.707 0-.547.448-.994.994-.994h25.416c.546 0 .994.447.994.994 0 7.554-6.143 13.707-13.707 13.707zm-11.669-12.713c.507 5.993 5.546 10.725 11.669 10.725s11.162-4.722 11.669-10.725H88.053z"/><path fill="#AFE0DD" d="M99.732 128.757c6.073 0 10.993 1.888 10.993 4.214H88.729c0-2.326 4.92-4.214 10.993-4.214z"/><path fill="#13706D" d="M110.725 133.965H88.729a.997.997 0 0 1-.994-.994c0-3.379 6.182-5.208 11.987-5.208s11.987 1.829 11.987 5.208a.997.997 0 0 1-.994.994zm-20.366-1.988h18.756c-1.332-1.113-4.712-2.226-9.373-2.226-4.662 0-8.041 1.113-9.373 2.226z"/><path fill="#13706D" d="M99.732 129.751a.997.997 0 0 1-.994-.994v-16.43c0-.547.447-.994.994-.994s.994.447.994.994v16.43a1 1 0 0 1-.994.994"/><path fill="#fff" d="M55.75 130.178h3.468c1.859 0 3.598-.984 4.483-2.614 3.936-7.177 3.737-16.778 3.737-16.778h-26.18s-.2 9.601 3.737 16.778c.894 1.63 2.634 2.614 4.483 2.614z"/><path fill="#13706D" d="M59.218 131.172h-9.73c-2.247 0-4.304-1.203-5.358-3.131-4.016-7.325-3.867-16.867-3.857-17.275a1 1 0 0 1 .994-.974h26.181a1 1 0 0 1 .994.974c0 .408.16 9.95-3.866 17.275-1.064 1.928-3.111 3.131-5.358 3.131M42.261 111.78c.08 2.574.567 9.751 3.608 15.297.706 1.292 2.098 2.097 3.618 2.097h9.731c1.521 0 2.903-.805 3.618-2.097 3.042-5.546 3.529-12.723 3.608-15.297z"/><path fill="#13706D" d="M68.402 124.612h-3.13a.997.997 0 0 1-.995-.994c0-.547.448-.994.994-.994h3.131a3.344 3.344 0 0 0 3.31-2.912 3.35 3.35 0 0 0-.805-2.634 3.36 3.36 0 0 0-2.505-1.133H67.23a.997.997 0 0 1-.994-.994c0-.547.448-.994.994-.994h1.173c1.53 0 2.982.656 3.996 1.809a5.3 5.3 0 0 1 1.282 4.194 5.34 5.34 0 0 1-5.288 4.652z"/><path fill="#fff" d="M68.999 130.178h-29.78s-1.4 4.095 15.129 4.095c16.53 0 14.65-4.095 14.65-4.095"/><path fill="#13706D" d="M54.348 135.257c-8.777 0-14.045-1.143-15.655-3.389-.716-1.004-.477-1.859-.417-2.018a1 1 0 0 1 .944-.666h29.779a1 1 0 0 1 .904.577c.209.467.278 1.292-.258 2.117-1.441 2.246-6.59 3.379-15.307 3.379zm-13.558-4.085c1.114.805 4.334 2.107 13.558 2.107s12.345-1.312 13.289-2.107z"/><path fill="#fff" d="M138.039 132.971V76.405c0-9.602 7.783-17.374 17.374-17.374 9.602 0 17.375 7.782 17.375 17.374V83.9h-7.972v-7.018a8.925 8.925 0 0 0-8.926-8.925 8.924 8.924 0 0 0-8.925 8.925v56.089z"/><path fill="#13706D" d="M146.965 133.965h-8.926a.997.997 0 0 1-.994-.994V76.405c0-10.128 8.24-18.368 18.368-18.368 10.129 0 18.368 8.24 18.368 18.368V83.9a.996.996 0 0 1-.993.993h-7.972a.997.997 0 0 1-.994-.993v-7.018c0-4.373-3.558-7.931-7.932-7.931-4.373 0-7.931 3.558-7.931 7.931v56.089a.997.997 0 0 1-.994.994m-7.932-1.988h6.938V76.882c0-5.467 4.453-9.92 9.919-9.92s9.92 4.453 9.92 9.92v6.024h5.984v-6.5c0-9.036-7.346-16.381-16.381-16.381s-16.38 7.345-16.38 16.38z"/><path fill="#C4EAE7" d="M178.523 110.428h-19.462v22.533h19.462z"/><path fill="#13706D" d="M178.533 133.965h-19.462a.997.997 0 0 1-.994-.994v-22.533c0-.547.447-.994.994-.994h19.462c.546 0 .994.447.994.994v22.533a.997.997 0 0 1-.994.994m-18.478-1.988h17.474v-20.545h-17.474z"/><path fill="#fff" d="M178.523 128.757h-19.462v4.214h19.462z"/><path fill="#13706D" d="M178.533 133.965h-19.462a.997.997 0 0 1-.994-.994v-4.214c0-.547.447-.994.994-.994h19.462c.546 0 .994.447.994.994v4.214a.997.997 0 0 1-.994.994m-18.478-1.988h17.474v-2.226h-17.474z"/><path fill="#fff" d="M142.492 132.971v-8.13c0-.975-.507-1.889-1.332-2.406l-14.014-8.707a2.22 2.22 0 0 0-3.231 1.064 2.214 2.214 0 0 0 .845 2.663l5.477 3.589a2.2 2.2 0 0 1 1.004 1.848v10.069h11.261z"/><path fill="#13706D" d="M142.492 133.965H131.23a.996.996 0 0 1-.993-.994v-10.069c0-.417-.209-.795-.557-1.023l-5.467-3.589a3.226 3.226 0 0 1-1.222-3.866 3.2 3.2 0 0 1 1.978-1.869 3.24 3.24 0 0 1 2.703.318l14.015 8.707a3.81 3.81 0 0 1 1.809 3.251v8.13a.997.997 0 0 1-.994.994zm-10.268-1.988h9.274v-7.136c0-.637-.328-1.223-.865-1.561l-14.014-8.707a1.22 1.22 0 0 0-1.034-.119 1.25 1.25 0 0 0-.756.715 1.24 1.24 0 0 0 .468 1.471l5.476 3.589a3.21 3.21 0 0 1 1.451 2.683v9.075z"/><path fill="#fff" d="M131.23 124.831s5.676 4.8 11.262.477z"/><path fill="#13706D" d="M137.413 128.101c-2.922 0-5.487-1.372-6.819-2.505a1.004 1.004 0 0 1-.119-1.402 1.003 1.003 0 0 1 1.401-.119c.219.179 5.149 4.215 10.01.448a.984.984 0 0 1 1.391.178.986.986 0 0 1-.179 1.392c-1.898 1.471-3.856 2.008-5.685 2.008"/><path fill="#C4EAE7" d="m167.708 88.442-3.638 8.727a5.1 5.1 0 0 0 1.094 5.566 5.1 5.1 0 0 0 7.206.04l.02-.02a5.1 5.1 0 0 0 1.113-5.646l-3.707-8.677c-.398-.924-1.71-.924-2.098 0z"/><path fill="#13706D" d="M168.782 105.23a6.04 6.04 0 0 1-4.324-1.799 6.11 6.11 0 0 1-1.302-6.65l3.638-8.727a2.12 2.12 0 0 1 1.958-1.312c.855 0 1.62.507 1.958 1.292l3.708 8.678a6.08 6.08 0 0 1-1.332 6.749 6.13 6.13 0 0 1-4.304 1.759zm-.159-16.4-3.638 8.726a4.12 4.12 0 0 0 .875 4.483 4.12 4.12 0 0 0 5.804.04c1.233-1.213 1.591-3.002.915-4.572l-3.708-8.678s-.039-.089-.129-.089c-.099 0-.119.06-.129.09zM50.382 105.409a1 1 0 0 1-.895-.547l-1.352-2.714a7.65 7.65 0 0 1 .666-7.961 5.67 5.67 0 0 0 .289-6.272l-1.73-2.892a.99.99 0 0 1 .348-1.362.99.99 0 0 1 1.362.348L50.8 86.9a7.64 7.64 0 0 1-.398 8.459 5.66 5.66 0 0 0-.497 5.894l1.352 2.713a.987.987 0 0 1-.448 1.332c-.139.07-.298.11-.447.11zm9.771.705a1 1 0 0 1-.895-.546l-.875-1.75a5.27 5.27 0 0 1 .467-5.506 3.31 3.31 0 0 0 .17-3.658l-1.114-1.868a.99.99 0 0 1 .348-1.362.99.99 0 0 1 1.362.348l1.113 1.868a5.32 5.32 0 0 1-.268 5.855 3.32 3.32 0 0 0-.289 3.449l.875 1.749a.99.99 0 0 1-.447 1.332c-.14.07-.298.109-.447.109z"/><path fill="#fff" d="M168.444 101.045a1.52 1.52 0 1 0 0-3.042 1.52 1.52 0 0 0 0 3.042"/><path fill="#13706D" d="M172.798 81.445h-3.996a.997.997 0 0 1-.994-.994c0-.547.447-.994.994-.994h3.996c.546 0 .994.447.994.994a.997.997 0 0 1-.994.994M67.309 144.72H41.377a.997.997 0 0 1-.994-.994c0-.547.447-.994.994-.994h25.932c.547 0 .994.447.994.994a.997.997 0 0 1-.994.994m-14.869 4.87H41.387a.997.997 0 0 1-.994-.994c0-.547.447-.994.994-.994H52.44c.547 0 .994.447.994.994a.997.997 0 0 1-.994.994m60.253-4.87H86.761a.997.997 0 0 1-.994-.994c0-.547.447-.994.994-.994h25.932c.547 0 .994.447.994.994a.997.997 0 0 1-.994.994m-14.869 4.87H86.77a.997.997 0 0 1-.994-.994c0-.547.447-.994.994-.994h11.053c.546 0 .993.447.993.994a.997.997 0 0 1-.993.994m72.977-4.87h-33.934a.997.997 0 0 1-.994-.994c0-.547.447-.994.994-.994H170.8c.546 0 .994.447.994.994a1 1 0 0 1-.994.994m-19.472 4.87h-14.472a.997.997 0 0 1-.994-.994c0-.547.448-.994.994-.994h14.472c.547 0 .994.447.994.994a.997.997 0 0 1-.994.994"/><path fill="#fff" d="M82.477 60.79c5.38 0 9.74-4.361 9.74-9.74s-4.36-9.741-9.74-9.741-9.74 4.36-9.74 9.74 4.36 9.741 9.74 9.741"/><path fill="#13706D" d="M82.477 61.784c-5.914 0-10.735-4.81-10.735-10.735s4.81-10.734 10.735-10.734 10.735 4.81 10.735 10.734S88.4 61.784 82.477 61.784m0-19.481c-4.82 0-8.747 3.926-8.747 8.746s3.926 8.747 8.747 8.747 8.747-3.926 8.747-8.747-3.926-8.746-8.747-8.746"/><path fill="#AFE0DD" d="M114.91 49.449a11.1 11.1 0 0 0-3.857.04 3.46 3.46 0 0 1-2.862-.726 12.04 12.04 0 0 0-8.111-2.743c-4.93.189-9.055 3.31-10.764 7.624-.537 1.361-1.79 2.226-3.26 2.325-.895.06-1.84.319-2.823.865-2.426 1.372-4.086 3.926-3.927 6.71a7.17 7.17 0 0 0 7.435 6.758 7.13 7.13 0 0 0 4.016-1.431c1.123-.845 2.664-.944 3.916-.249a11.95 11.95 0 0 0 6.292 1.501 11.6 11.6 0 0 0 4.005-.855c.925-.367 1.948-.278 2.823.21a10.66 10.66 0 0 0 5.676 1.37c6.58-.248 11.569-6.34 10.138-13.1-.905-4.254-4.423-7.593-8.717-8.309z"/><path fill="#13706D" d="M113.091 71.863c-2.018 0-3.996-.517-5.755-1.501-.616-.348-1.342-.408-1.968-.15a13.1 13.1 0 0 1-4.344.925c-2.375.1-4.731-.467-6.808-1.63-.925-.517-2.018-.457-2.843.17a8.05 8.05 0 0 1-4.582 1.63c-4.443.158-8.21-3.29-8.469-7.694-.169-3.022 1.57-6.014 4.433-7.634 1.044-.586 2.137-.924 3.25-.994 1.104-.07 1.998-.705 2.396-1.7a13.07 13.07 0 0 1 11.649-8.25 13.03 13.03 0 0 1 8.777 2.963 2.4 2.4 0 0 0 2.037.517 12 12 0 0 1 4.205-.05c4.711.785 8.538 4.433 9.522 9.085.735 3.459-.08 7.017-2.217 9.77a11.75 11.75 0 0 1-8.856 4.533h-.437zm-6.908-3.797c.725 0 1.461.189 2.127.566 1.56.885 3.34 1.302 5.149 1.243a9.77 9.77 0 0 0 7.355-3.767c1.779-2.286 2.455-5.248 1.839-8.13-.815-3.857-3.996-6.889-7.902-7.535a9.9 9.9 0 0 0-3.509.04 4.47 4.47 0 0 1-3.678-.934 11.08 11.08 0 0 0-7.434-2.515 11.07 11.07 0 0 0-9.87 6.997c-.676 1.7-2.247 2.833-4.115 2.952-.815.05-1.6.289-2.396.746-2.206 1.242-3.548 3.518-3.419 5.794.189 3.34 3.042 5.954 6.401 5.825a6.05 6.05 0 0 0 3.46-1.232c1.46-1.104 3.379-1.223 4.999-.319a11.13 11.13 0 0 0 5.775 1.382 10.9 10.9 0 0 0 3.677-.785 4.2 4.2 0 0 1 1.551-.298z"/></svg>
